X:1
T:The Rigs of the Time
M:3/4
L:1/4
K:C
 z2 A/2A/2| A D E| F E D| G F G| A2 A/2A/2| A D/2D/2 E| F- E D| G F G|\
 A2 A/2B/2| c A B| c c c| d A B| c2 c| d A A| A G F| F G E| D2 C/2C/2|\
 D E F| G A3/2 G/2| F D2-| D3| C D E| F G3/2 A/2| d3| c3/2 B3/2| A3|\
 F G3/2 F/2| E F3/2 E/2| D2 z|
